X:1
L:1/8
Q:1/8=120
M:5/4
K:D
""^slow"" DFA | d3 e fd A3 F/A/ | G3 E FD z D2 F/A/ | d3 e fd A3 F/A/ | G3 c ed z || 
[M:6/8]""^\""lively\""""[Q:1/8=280] F2 F F2 F | EFE E2 F | D2 D D2 F | A3 d3 | F2 F F2 F | EFE E2 F | 
 D2 F A2 F | D3 D3 |]
